X:1
T:Margate Hay, The
M:6/8
L:1/8
R:Country Dance/Jig
B:Thompson - Compleat Collection of 200 Favourite Country Dances, vol. 5 (London, 1788, No. 122, p. 61)
Z:AK/Fiddler's Companion
K:G
GFG EFG|AFA DEF|GBd gfe|e3d3|
ecA ABc|dBG GAB|EcB cAF|G3-G3:|
|:gfg efg|aga def|gfe afd|Tc3B3|
ede ABc|dcd GAB|EcB AGF|G3 G,3:|]
